X:673
T:
N:
S:Efter klockaren O. Langren, Alva.
R:kadrilj
O:Gotland, Alva
M:2/4
L:1/16
K:F
cdcB cdcB|c2a2 f4|dedc dedc|d2b2 g4|cdcB cdcB|c2a2 f4|e2c'2b2e2|f8::d2f2
a4|d2f2 a4|gfed ^cdec|d2f2 A4|d2f2 a4|f2a2 c'4|bagf efge|f8::
K:Bb
f2b2a2g2|f2d2 f4|e2c2e4|d2B2 d4|B2b2a2g2|f2d2 f4|e2d2e2A2|B4
z4::A2B2A2G2|^F2D2=E2F2|G2A2B2c2|d2de d4|d2b2 bab2|c2a2 aga2|g2f2f2A2|B6 z2:|

